X: 8
T: My Darling Asleep
R: jig
M: 6/8
L: 1/8
K: Dmin
|:fdd cAA|BAG AAG|FAA def|1,3 gfg eag|2,4 gec d3:|
|:FAA BAG|FAA BAG|FAA def|gfg ega|
|fdd cAA|BAG AAG|FAA def|gec d3:|


Tune 76	Setting 30177

